lib/brands/icons/dogecoin.svg

<svg xmlns="http://www.w3.org/2000/svg" fill="none" aria-hidden="true" viewBox="0 0 48 48"><g id="dogecoin-Icon"><g id="Union"><path fill="#C2A633" d="M21.8602 17.862H24.432C25.3939 17.862 30.2334 18.2492 30.2411 24.2264C30.2488 30.1325 25.3695 30.1264 24.5846 30.1254C24.5751 30.1254 24.5663 30.1254 24.558 30.1254H21.8602V25.0553H25.9064V22.9324H21.8602V17.862Z"/><path fill="#C2A633" fill-rule="evenodd" d="M6 24C6 14.0588 14.0588 6 24 6C33.9412 6 42 14.0588 42 24C42 33.9412 33.9412 42 24 42C14.0588 42 6 33.9412 6 24ZM18.1885 33.7218H24.7074C24.7074 33.7218 33.8732 34.49 33.8732 24.1564C33.8732 14.2234 25.5031 14.2587 23.8854 14.2655C23.8475 14.2656 23.8134 14.2658 23.7831 14.2658H18.1883V22.9326H15.8906V25.0555H18.1885V33.7218Z" clip-rule="evenodd"/></g></g></svg>

<svg xmlns="http://www.w3.org/2000/svg" fill="none" aria-hidden="true" viewBox="0 0 48 48"><g fill="#C2A633"><path d="M21.86 17.862h2.572c.962 0 5.801.387 5.81 6.364.007 5.907-4.873 5.9-5.657 5.9H21.86v-5.07h4.046v-2.124H21.86v-5.07Z"/><path fill-rule="evenodd" d="M6 24c0-9.941 8.059-18 18-18s18 8.059 18 18-8.059 18-18 18S6 33.941 6 24Zm12.189 9.722h6.518s9.166.768 9.166-9.566c0-9.933-8.37-9.897-9.988-9.89h-5.697v8.667h-2.297v2.122h2.298v8.667Z" clip-rule="evenodd"/></g></svg>
